X:1
T: Marquis of Lorn
P:Kerr's 4th version
R:Strathspey
Q: 128
K:G
M:4/4
L:1/16
|:Bc|d3G B3g d3G B4|cde2 d3B cA3 A2Bc|d3G B3g d3G B4 cde2|A3d BG3 G2Bc|
d3G B3g d3G B4|cde2 d3B cA3 A2Bc|d3G B3g d3G B4|cde2 A3d BG3 G2f2|
g4 d3g efg2 d3B|cde2 d3B cA3 A3f|g4 d3g efg2 d3B|cde2 A3d BG3 G2f2|
g4 d3g efg2 d3B|cde2 d3B cA3 A3f|g4 d3g efg2 d3B|cde2 A3d BG3 G2:|
